libs/icons/src/svg/move-right.svg

<svg width="16" height="16" viewBox="0 0 16 16" fill="none" xmlns="http://www.w3.org/2000/svg">
<g clip-path="url(#clip0_3_3761)">
<path fill-rule="evenodd" clip-rule="evenodd" d="M4 8.00001C4 7.63182 4.29848 7.33334 4.66667 7.33334H14.6667C15.0349 7.33334 15.3333 7.63182 15.3333 8.00001C15.3333 8.3682 15.0349 8.66668 14.6667 8.66668H4.66667C4.29848 8.66668 4 8.3682 4 8.00001Z" fill="#202327"/>
<path fill-rule="evenodd" clip-rule="evenodd" d="M10.1953 3.52861C10.4556 3.26826 10.8777 3.26826 11.1381 3.52861L15.1381 7.52861C15.3984 7.78896 15.3984 8.21107 15.1381 8.47141L11.1381 12.4714C10.8777 12.7318 10.4556 12.7318 10.1953 12.4714C9.93491 12.2111 9.93491 11.789 10.1953 11.5286L13.7239 8.00001L10.1953 4.47141C9.93491 4.21107 9.93491 3.78896 10.1953 3.52861Z" fill="#202327"/>
<path fill-rule="evenodd" clip-rule="evenodd" d="M1.33335 0.666672C1.70154 0.666672 2.00002 0.965149 2.00002 1.33334V14.6667C2.00002 15.0349 1.70154 15.3333 1.33335 15.3333C0.965164 15.3333 0.666687 15.0349 0.666687 14.6667V1.33334C0.666687 0.965149 0.965164 0.666672 1.33335 0.666672Z" fill="#202327"/>
</g>
<defs>
<clipPath id="clip0_3_3761">
<rect width="16" height="16" fill="white"/>
</clipPath>
</defs>
</svg>

<svg xmlns="http://www.w3.org/2000/svg" viewBox="0 0 16 16" class="sageicon"><path fill-rule="evenodd" d="M4 8c0-.368.298-.667.667-.667h10a.667.667 0 0 1 0 1.334h-10A.667.667 0 0 1 4 8Z"/><path fill-rule="evenodd" d="M10.195 3.529c.26-.26.683-.26.943 0l4 4c.26.26.26.682 0 .942l-4 4a.667.667 0 1 1-.943-.942L13.724 8l-3.529-3.529a.667.667 0 0 1 0-.942ZM1.333.667c.369 0 .667.298.667.666v13.334a.667.667 0 0 1-1.333 0V1.333c0-.368.298-.666.666-.666Z"/></svg>
